X:1
T:Title
%%score { ( 1 3 ) | ( 2 4 ) }
L:1/8
Q:1/4=108
M:6/8
K:C
V:1 treble nm="Grand Piano"
V:3 treble 
V:2 bass 
V:4 bass 
V:1
 [EG]2 [Ec] [EB]2 [Ec] | [EG]2 [Ec] [EB]2 [Ec] | d2 A A2 ^G | A6 | B2 B F2 G | A2 ^G A2 B | %6
w: C.~Austin~Miles * * *||||||
 [FA]2 [EG] [EG]2 [CE] | [EG]6 | [EG]2 [Ec] [EB]2 [Ec] | [EG]2 [Ec] [EB]2 [Ec] | d2 A A2 ^G | A6 | %12
w: ||||||
 G2 A B2 c | e2 d B2 G | [Ec]6 | e3 e3 | [EGd]3 [EGc]3 | B6 | A6 | B6 | B3 A3 | A3 G3 | E3 [EG]3 | %23
w: |||||||||||
 e3 e3 | [EGd]3 [EGc]3 | B6 | A6 | G2 c B2 c | e3 d3 | c6- | c3 z3 |] %31
w: ||||||||
V:2
 [C,C]2 [C,G,] [C,G,]2 [C,G,] | [C,C]2 [C,G,] [C,G,]2 [C,G,] | [F,A,F]2 [F,CF] [F,CF]2 [F,B,F] | %3
 [F,CF]6 | [G,F]2 [G,F] [G,B,]2 [G,B,F] | [G,B,F]2 [G,B,F] [G,B,F]2 [G,B,F] | %6
 [C,C]2 [C,C] [C,C]2 [C,G,] | [C,C]6 | [C,C]2 [C,G,] [C,G,]2 [C,G,] | %9
 [C,C]2 [C,G,] [C,G,]2 [C,G,] | [F,A,F]2 [F,CF] [F,CF]2 [F,B,F] | [F,CF]6 | %12
 [G,CE]2 [G,CE] [G,DF]2 [G,EG] | [G,CG]2 [G,B,F] [G,DF]2 [G,B,F] | [C,C]6 | %15
 [C,C]2 [C,C] [C,C]2 [C,C] | [C,C]3 [C,C]3 | [F,A,F]2 [F,A,] [F,A,]2 [F,A,] | [F,DF]3 [F,D]3 | %19
 [G,DF]2 [G,D] [G,D]2 [G,B,D] | [G,DF]3 [G,DF]3 | [C,C]2 [C,C] [C,C]2 [C,C] | [C,G,C]3 [C,C]3 | %23
 [C,C]2 [C,C] [C,C]2 [C,C] | [C,C]3 [C,C]3 | [F,A,F]2 [F,A,] [F,A,]2 [F,A,] | %26
 [F,DF]3 [F,C]2 [F,C_E] | [G,CE]2 [G,CE] [G,DF]2 [G,CE] | [G,CG]3 [G,B,F]3 | z2 G, A,2 A, | %30
 G,3 z3 |] %31
V:3
 x6 | x6 | x6 | x6 | x6 | x6 | x6 | x6 | x6 | x6 | x6 | x6 | x6 | x6 | x6 | [EG]2 [EG] [EG]2 [EG] | %16
 x6 | z2 F F2 F | z3 F3 | z2 F F2 F | x6 | E2 E E2 E | x6 | [EG]2 [EG] [EG]2 [EG] | x6 | %25
 z2 F F2 F | z3 _E2 A | x6 | x6 | [CE]2 E F2 F | E3 z3 |] %31
V:4
 x6 | x6 | x6 | x6 | x6 | x6 | x6 | x6 | x6 | x6 | x6 | x6 | x6 | x6 | x6 | x6 | x6 | x6 | x6 | %19
 x6 | x6 | x6 | x6 | x6 | x6 | x6 | x6 | x6 | x6 | C,6- | C,3 z3 |] %31

